X:1
T:St. Mabyn, 87.87
T:Arthur Henry Brown (1830-1926)
T:St. Mabyn, 87.87
T:Public Domain
C:Arthur Henry Brown (1830-1926)
Z:Public Domain
%%score ( 1 2 ) ( 3 4 )
L:1/8
M:4/4
K:G
V:1 treble 
V:2 treble 
V:3 bass 
V:4 bass 
V:1
 [GB]3 [GB] [FA]2 G2 | [Gd]2 [GB]2 [GB]2 [FA]2 | E2 z c [GB]2 E2 | [DF]2 [^CG]2 [DF]4 | %4
 [FA]3 [FA] [EA]2 [EB]2 | [Ec]2 [EA]2 [DG]2 [DF]2 x | G2 [Gd]2 [Gd]3 [Ac] | [GB]2 [FA]2 G4 |] %8
V:2
 x6 G2 | x8 | c3 (F2 x E2) | x8 | x8 | x9 | G2 x6 | x4 G4 |] %8
V:3
 [G,D]3 [G,D] [D,C]2 [E,B,]2 | [B,,D]2 [G,,D]2 [D,D]2 [D,D]2 | [A,C]3 [A,C] [B,D]2 [G,B,]2 | %3
 A,2 [A,,A,]2 [D,A,]4 | [D,D]3 [D,D] [C,E]2 [^G,,D]2 | [A,,C]2 [C,C]2 B,2 z C, x | %6
 [B,,D]2 [B,,=F]2 [C,E]3 [C,E] | D,2 z C [G,,B,]4 |] %8
V:4
 x8 | x8 | x8 | A,2 x6 | x8 | x4 D,3 B,2 | x8 | D3 D,2 x3 |] %8

